packages/elvis-assets-icons/icons/svg/src/question_circle-color.svg

<svg width="24" height="25" viewBox="0 0 24 25" fill="none" xmlns="http://www.w3.org/2000/svg">
<path d="M12 15.0172C11.586 15.0172 11.25 14.6808 11.25 14.2664V13.2592C11.249 12.3061 11.852 11.4521 12.75 11.1348C13.647 10.8174 14.25 9.96343 14.25 9.01134C14.25 8.40965 14.016 7.844 13.591 7.41851C13.167 6.99302 12.602 6.75875 12 6.75875C11.399 6.75875 10.834 6.99302 10.409 7.41851C9.984 7.843 9.75 8.40864 9.75 9.01033C9.75 9.42381 9.414 9.76119 9 9.76119C8.586 9.76119 8.25 9.42381 8.25 9.01033C8.25 8.00718 8.641 7.06511 9.349 6.35629C10.057 5.64748 10.999 5.25703 12 5.25703C14.068 5.25703 15.75 6.94197 15.75 9.01134C15.75 10.5992 14.745 12.0208 13.25 12.5504C12.951 12.6565 12.75 12.9408 12.75 13.2582V14.2664C12.75 14.6808 12.414 15.0172 12 15.0172Z" fill="black"/>
<path d="M12 18.7715C12.6213 18.7715 13.125 18.2672 13.125 17.6452C13.125 17.0232 12.6213 16.5189 12 16.5189C11.3787 16.5189 10.875 17.0232 10.875 17.6452C10.875 18.2672 11.3787 18.7715 12 18.7715Z" fill="#29D305"/>
<path d="M12 24.0275C5.383 24.0275 0 18.6384 0 12.0138C0 5.38917 5.383 0 12 0C18.617 0 24 5.38917 24 12.0138C24 18.6384 18.617 24.0275 12 24.0275ZM12 1.50172C6.21 1.50172 1.5 6.21712 1.5 12.0138C1.5 17.8104 6.21 22.5258 12 22.5258C17.79 22.5258 22.5 17.8104 22.5 12.0138C22.5 6.21712 17.79 1.50172 12 1.50172Z" fill="black"/>
</svg>

<svg width="24" height="25" fill="none" xmlns="http://www.w3.org/2000/svg"><path d="M12 15.017a.75.75 0 01-.75-.75v-1.008a2.254 2.254 0 011.5-2.124 2.256 2.256 0 00.841-3.716A2.23 2.23 0 0012 6.759c-.601 0-1.166.234-1.591.66-.425.424-.659.99-.659 1.591 0 .414-.336.751-.75.751a.751.751 0 01-.75-.75c0-1.004.391-1.946 1.099-2.655A3.723 3.723 0 0112 5.257a3.757 3.757 0 013.75 3.754 3.76 3.76 0 01-2.5 3.54.752.752 0 00-.5.707v1.008a.75.75 0 01-.75.751z" fill="#000"/><path d="M12 18.771a1.126 1.126 0 10-.001-2.25A1.126 1.126 0 0012 18.77z" fill="#29D305"/><path d="M12 24.027c-6.617 0-12-5.389-12-12.013C0 5.389 5.383 0 12 0s12 5.39 12 12.014-5.383 12.014-12 12.014zm0-22.525c-5.79 0-10.5 4.715-10.5 10.512 0 5.796 4.71 10.512 10.5 10.512s10.5-4.716 10.5-10.512c0-5.797-4.71-10.512-10.5-10.512z" fill="#000"/></svg>
